X: 35787
T: Sally Rod, The
R: reel
M: 4/4
K: Dmajor
D2 FD GEFD|EA GE A,3 C|D2 FD GEFD|EA A2 (3Bcd ec|
d2 cA GEFD|EA GE A,3 C|D2 FD GEFD|EAGE ED D2||
EAA^G A3 F|EAAB cAGF|EAAB cA (3Bcd|ecAG EFGF|
EAA^G A3 F|EAAB cA (3Bcd|efge bg ec|A2 ge cAGE||

